X:1
T:Jesus Is Calling the Children
T:George Marks Evans
T:Jesus Is Calling the Children
T:Public Domain
T:Public Domain
C:George Marks Evans
Z:Public Domain
%%score ( 1 2 ) ( 3 4 )
L:1/8
M:6/8
K:Eb
V:1 treble 
V:2 treble 
V:3 bass 
V:4 bass 
V:1
 [GB]>[Ac][GB] [EG][FA][GB] | (e2 c) [GB]3 | [FA]3 (GB)[FA] | ([EG]3 [DF]2 [FB]) | %4
w: 1.~Je- sus is call- ing the|child- * ren,|to His * side;|pens * *|
w: 2.~Je- sus is call- ing the|child- * ren,|should they * stay|in * *|
w: 3.~Je- sus is call- ing the|child- * ren,|ing to- * day;|en, * *|
w: 4.~Je- sus is call- ing the|child- * ren;|Lord, are * we,|in * *|
 [GB]>[Ac][GB] [EG][FA][GB] | (e2 c) [GB]3 | [FB]3 (=AB)[Fc] | [FB]6 || %8
w: His arms to re- ceive them,|O- * pens|wide. * * *||
w: the wil- der- ness wan- dering,|Go- * ing|stray? Gent- * ly|lead|
w: each one, for His bless- ing,|Do * not|lay. * * *||
w: the Good Shep- herd’s keep- ing|Ev- * er|be. * * *||
"^Refrain" [Be]3 ([ce][Bd])[Ac] | [GB]3 ([FA]2 [EB]) | [Ec]3 ([Dc][EB])[FA] | [EG]3 [DF]3 | %12
w: ||||
w: them, Guard * them|and keep *|them, Je- * sus|is call-|
w: ||||
w: ||||
 [EG]3 ([FA][EG])[DA] | ([EB]2 [Ge]) [Ee]2 [EB] | ([GB]2 [FA]) [EG]2 [DF] | E4 x2 |] %16
w: ||||
w: ing The * lambs|to * His fold.|||
w: ||||
w: ||||
V:2
 x6 | A3 x3 | x3 E2 x | x6 | x6 | A3 x3 | x3 F2 x | x6 || x6 | x6 | x6 | x6 | x6 | x6 | x6 | %15
w: |Un-|O-|||them||||||||||
w: |Why|Out|||a-|to|||||||||
w: |Call-|Hast-|||de-||||||||||
w: |Here,|Safe|||to||||||||||
 E4 x2 |] %16
w: |
w: |
w: |
w: |
V:3
 [E,E]>[E,E][E,E] [E,B,][E,B,][E,E] | (C2 D) [E,E]3 | [D,B,]3 (E,G,)[A,C] | (B,3 B,2 D) | %4
 [E,E]>[E,E][E,E] [E,B,][E,B,][E,E] | (C2 D) [E,E]3 | [F,D]3 (CD)[F,E] | (B,3 A,3) || %8
 [G,E]3 [A,E]2 [A,E] | (E2 _D) ([F,C]2 [G,B,]) | A,3 ([F,A,][G,B,])[A,C] | B,3 [B,,B,]3 | %12
 [E,B,]3 (D,E,)[F,B,] | (G,2 E,) [A,C]2 [G,_D] | [A,C]3 B,2 [B,,A,] | [E,G,]6 |] %16
V:4
 x6 | E,3 x3 | x3 B,2 x | B,3 B,,3 | x6 | E,3 x3 | x3 F,2 x | D6 || x6 | E,3 x3 | A,3 x3 | B,3 x3 | %12
 x3 B,2 x | B,3 x3 | x3 B,2 x | x6 |] %16

